X:1
T:When Irish Eyes Are Smiling
M:3/4
L:1/4
K:D
 F/2G/2| A d B| A2 F/2G/2| A d B| A F E| D E F| F E D| A3-| A2 E/2F/2|\
 G F E| G F E| D E F| A G F| E F ^G| B c E| A3-| A2| F/2G/2| A d B|\
 A F G| A d B| A F E| D E F| F E D| d3-| d2 B/2c/2| d B c| d c B| c A|\
 B| c B A| E F ^G| B2 c| A3-| A2| A| F2 F| E2 D| F A2-| A F D| G2 B|\
 B| A3-| A2 B/2c/2| d2 c| d2 c| B A2| G2 F| B2 E| E2 F| E3-| E2 A|\
 F2 F| E2 D| F A2-| A F D| G2 B| d2 B| A3-| A B c| d2 c| e2 d| f3|\
 A ^G A| B c d| e2 d| d3-| d2||
